X:424
T:When the Roll is Called Up Yonder
K:G
M:4/4
L:1/8
GA | BB BB B B2 A | G>A GE D2 GA | BB BB dd cB |
A6 GA | BB BB B B2 A | G>A GE D2 GA | BB BG AA BA | G6 ||
Bc | d6 Bc | d3 c B2 AB | c6 AB | c3 B A2 |
Bc dd de d2 | BA GG GE D2 | GA BB BG AA | BA G4 ||
